X:649
T: ES SANGEN DREI ENGEL
N: E2031B
O: Europa, Mitteleuropa, Deutschland, Sued - Schwarzwald
R: geistlich, Wallfahrts - Lied
M: 3/4
L: 1/16
K: F
F4 | F4C4A4 | A4F4
F3G | A4A4c4 | G8
c4 | c4d2c2B2A2 | B4c2B2
A2G2 | A4B2A2G2F2 | F8

